X:24
T:Sally Kelly. TJD.24
M:2/2
L:1/8
Q:1/4=120
S:T.J.Dixon MS1, Lincolnshire, 1798
R:reel
N:First bar line moved forward by one note
A:Lincolnshire, Holton le Moor
Z:Vmp.R.Greig2010
K:F
“Qu’s in MS”E/D/|d2^c2d2(df)|edcd efga|fde^cd2(AF)|GBAG FD-D:|!
|:E|F>GAc F/F/FA2|FGAc BGGg|fde^cd2″^bar line added”(AF)|GBAG FDD:|]

